outputs/icons/action/calendar_round.svg

<svg xmlns="http://www.w3.org/2000/svg" width="1200" height="1200" fill="none"><g clip-path="url(#a)"><path fill="#000" d="M1000 150h-50v-50c0-27.5-22.5-50-50-50s-50 22.5-50 50v50H350v-50c0-27.5-22.5-50-50-50s-50 22.5-50 50v50h-50c-55 0-100 45-100 100v800c0 55 45 100 100 100h800c55 0 100-45 100-100V250c0-55-45-100-100-100m-50 900H250c-27.5 0-50-22.5-50-50V400h800v600c0 27.5-22.5 50-50 50"/></g><defs><clipPath id="a"><path fill="#fff" d="M0 0h1200v1200H0z"/></clipPath></defs></svg>

<svg width="1200" height="1200" viewBox="0 0 1200 1200" fill="none" xmlns="http://www.w3.org/2000/svg"><g clip-path="url(#clip0_223_1922)"><path d="M1000 150H950V100C950 72.5 927.5 50 900 50C872.5 50 850 72.5 850 100V150H350V100C350 72.5 327.5 50 300 50C272.5 50 250 72.5 250 100V150H200C145 150 100 195 100 250V1050C100 1105 145 1150 200 1150H1000C1055 1150 1100 1105 1100 1050V250C1100 195 1055 150 1000 150ZM950 1050H250C222.5 1050 200 1027.5 200 1000V400H1000V1000C1000 1027.5 977.5 1050 950 1050Z" fill="black"/></g><defs><clipPath id="clip0_223_1922"><path width="24" fill="white" d="M0 0H1200V1200H0V0z"/></clipPath></defs></svg>
